X:180
T: Waise und Stiefmutter
N: Q1116G
O: Osteuropa, Ungarn
N: Melodievergleich zu Q0116, anderes Lied.
R: ???
M: 3/4
L: 1/8
K: G
 | G3GG2 | G2F2G2 | A4
D2 | A3AA2 | A2G2A2 | B4
d2 | d2B2B2 | B2A2d2 | c4B2 | A4
D2 | G4B2 | d2c2A2 | G6

@@@ Tune index: 1473
